packages/components/svg/outline/onekey-keytag.svg

<svg xmlns="http://www.w3.org/2000/svg" width="24" height="24" fill="currentColor" viewBox="0 0 24 24">
<path d="M19 3C20.1046 3 21 3.89543 21 5V19C21 20.1046 20.1046 21 19 21H5C3.89543 21 3 20.1046 3 19V5C3 3.89543 3.89543 3 5 3H19ZM5 19H19V5H5V19ZM8 14.75C8.69036 14.75 9.25 15.3096 9.25 16C9.25 16.6904 8.69036 17.25 8 17.25C7.30964 17.25 6.75 16.6904 6.75 16C6.75 15.3096 7.30964 14.75 8 14.75ZM12 14.75C12.6904 14.75 13.25 15.3096 13.25 16C13.25 16.6904 12.6904 17.25 12 17.25C11.3096 17.25 10.75 16.6904 10.75 16C10.75 15.3096 11.3096 14.75 12 14.75ZM16 14.75C16.6904 14.75 17.25 15.3096 17.25 16C17.25 16.6904 16.6904 17.25 16 17.25C15.3096 17.25 14.75 16.6904 14.75 16C14.75 15.3096 15.3096 14.75 16 14.75ZM8 11C8.69036 11 9.25 11.5596 9.25 12.25C9.25 12.9404 8.69036 13.5 8 13.5C7.30964 13.5 6.75 12.9404 6.75 12.25C6.75 11.5596 7.30964 11 8 11ZM12 11C12.6904 11 13.25 11.5596 13.25 12.25C13.25 12.9404 12.6904 13.5 12 13.5C11.3096 13.5 10.75 12.9404 10.75 12.25C10.75 11.5596 11.3096 11 12 11ZM16 11C16.6904 11 17.25 11.5596 17.25 12.25C17.25 12.9404 16.6904 13.5 16 13.5C15.3096 13.5 14.75 12.9404 14.75 12.25C14.75 11.5596 15.3096 11 16 11ZM8 7C8.69036 7 9.25 7.55964 9.25 8.25C9.25 8.94036 8.69036 9.5 8 9.5C7.30964 9.5 6.75 8.94036 6.75 8.25C6.75 7.55964 7.30964 7 8 7ZM12 7C12.6904 7 13.25 7.55964 13.25 8.25C13.25 8.94036 12.6904 9.5 12 9.5C11.3096 9.5 10.75 8.94036 10.75 8.25C10.75 7.55964 11.3096 7 12 7ZM16 7C16.6904 7 17.25 7.55964 17.25 8.25C17.25 8.94036 16.6904 9.5 16 9.5C15.3096 9.5 14.75 8.94036 14.75 8.25C14.75 7.55964 15.3096 7 16 7Z" />
</svg>

<svg xmlns="http://www.w3.org/2000/svg" width="24" height="24" fill="currentColor" viewBox="0 0 24 24">
  <path d="M8 14.75a1.25 1.25 0 1 1 0 2.5 1.25 1.25 0 0 1 0-2.5Zm4 0a1.25 1.25 0 1 1 0 2.5 1.25 1.25 0 0 1 0-2.5Zm4 0a1.25 1.25 0 1 1 0 2.5 1.25 1.25 0 0 1 0-2.5ZM8 11a1.25 1.25 0 1 1 0 2.5A1.25 1.25 0 0 1 8 11Zm4 0a1.25 1.25 0 1 1 0 2.5 1.25 1.25 0 0 1 0-2.5Zm4 0a1.25 1.25 0 1 1 0 2.5 1.25 1.25 0 0 1 0-2.5ZM8 7a1.25 1.25 0 1 1 0 2.5A1.25 1.25 0 0 1 8 7Zm4 0a1.25 1.25 0 1 1 0 2.5A1.25 1.25 0 0 1 12 7Zm4 0a1.25 1.25 0 1 1 0 2.5A1.25 1.25 0 0 1 16 7Z"/>
  <path fill-rule="evenodd" d="M19 3a2 2 0 0 1 2 2v14a2 2 0 0 1-2 2H5a2 2 0 0 1-2-2V5a2 2 0 0 1 2-2h14ZM5 19h14V5H5v14Z" clip-rule="evenodd"/>
</svg>
